!!!COM: Edgard [Edgar] (Victor Achille Charles) Varèse
!!!OTL: [T418_Var-w1p75m2-1h34m1-6]
**kern	**dynam	**kern	**dynam	**kern	**dynam	**kern	**dynam	**kern	**dynam	**kern	**dynam	**kern	**dynam	**kern	**dynam	**kern	**dynam	**kern	**kern	**dynam	**kern	**dynam	**kern	**dynam	**kern	**dynam	**kern	**dynam	**kern	**dynam	**kern	**dynam	**kern	**dynam	**kern	**dynam	**kern	**dynam	**kern	**dynam	**kern	**dynam	**kern	**dynam	**kern	**dynam	**kern	**dynam	**kern	**dynam	**kern	**dynam	**kern	**dynam	**kern	**dynam	**kern	**dynam	**kern	**dynam	**kern	**dynam	**kern	**dynam	**kern	**dynam	**kern	**dynam	**kern	**dynam	**kern	**dynam	**kern	**dynam	**kern	**dynam
*grp:A	*grp:A	*grp:A	*grp:A	*grp:A	*grp:A	*grp:A	*grp:A	*grp:A	*grp:A	*grp:A	*grp:A	*grp:A	*grp:A	*grp:A	*grp:A	*grp:A	*grp:A	*grp:A	*grp:A	*grp:A	*grp:A	*grp:A	*grp:A	*grp:A	*grp:A	*grp:A	*grp:A	*grp:A	*grp:A	*grp:A	*grp:A	*grp:A	*grp:A	*grp:A	*grp:A	*grp:A	*grp:A	*grp:A	*grp:A	*grp:A	*grp:A	*grp:A	*grp:A	*grp:A	*grp:A	*grp:A	*grp:A	*grp:A	*grp:A	*grp:A	*grp:A	*grp:A	*grp:A	*grp:A	*grp:A	*grp:A	*grp:A	*grp:A	*grp:A	*grp:A	*grp:A	*grp:A	*grp:A	*grp:A	*grp:B	*grp:B	*grp:A	*grp:A	*grp:A	*grp:A	*grp:B	*grp:B	*grp:B	*grp:B	*grp:B	*grp:B
*part38	*part38	*part37	*part37	*part36	*part36	*part35	*part35	*part34	*part34	*part33	*part33	*part32	*part32	*part31	*part31	*part30	*part30	*part29	*part28	*part28	*part27	*part27	*part26	*part26	*part25	*part25	*part24	*part24	*part23	*part23	*part22	*part22	*part21	*part21	*part20	*part20	*part20	*part20	*part19	*part19	*part18	*part18	*part17	*part17	*part16	*part16	*part15	*part15	*part14	*part14	*part13	*part13	*part12	*part12	*part11	*part11	*part10	*part10	*part9	*part9	*part8	*part8	*part7	*part7	*part6	*part6	*part5	*part5	*part4	*part4	*part3	*part3	*part2	*part2	*part1	*part1
*staff39	*staff39	*staff38	*staff38	*staff37	*staff37	*staff36	*staff36	*staff35	*staff35	*staff34	*staff34	*staff33	*staff33	*staff32	*staff32	*staff31	*staff31	*staff30	*staff29	*staff29	*staff28	*staff28	*staff27	*staff27	*staff26	*staff26	*staff25	*staff25	*staff24	*staff24	*staff23	*staff23	*staff22	*staff22	*staff21	*staff21	*staff20	*staff20	*staff19	*staff19	*staff18	*staff18	*staff17	*staff17	*staff16	*staff16	*staff15	*staff15	*staff14	*staff14	*staff13	*staff13	*staff12	*staff12	*staff11	*staff11	*staff10	*staff10	*staff9	*staff9	*staff8	*staff8	*staff7	*staff7	*staff6	*staff6	*staff5	*staff5	*staff4	*staff4	*staff3	*staff3	*staff2	*staff2	*staff1	*staff1
*I"Contrabass	*I"Contrabass	*I"Violoncello	*I"Violoncello	*I"Viola	*I"Viola	*I"Violin II	*I"Violin II	*I"Violin I	*I"Violin I	*I"Tam-tam	*I"Tam-tam	*I"Whip	*I"Whip	*I"Tambourine	*I"Tambourine	*I"Castanets	*I"Castanets	*I"Triangle	*I"Bass Drum	*I"Bass Drum	*I"Cymbals	*I"Cymbals	*I"Snare Drum	*I"Snare Drum	*I"Rattle	*I"Rattle	*I"Sleigh Bells	*I"Sleigh Bells	*I"Xylophone	*I"Xylophone	*I"Timpani II.	*I"Timpani II.	*I"Timpani I.	*I"Timpani I.	*I"Harp I. II.	*I"Harp I. II.	*I"Harp I. II.	*I"Harp I. II.	*I"C. Tuba	*I"C. Tuba	*I"Tuba	*I"Tuba	*I"Trpt. in C II.	*I"Trpt. in C II.	*I"Trpt. in C I.	*I"Trpt. in C I.	*I"Horn in F VIII.	*I"Horn in F VIII.	*I"Horn in F VII.	*I"Horn in F VII.	*I"Horn in F VI.	*I"Horn in F VI.	*I"Horn in F V.	*I"Horn in F V.	*I"Contrabassoon II.	*I"Contrabassoon II.	*I"Contrabassoon I.	*I"Contrabassoon I.	*I"Bassoon I. II. III.	*I"Bassoon I. II. III.	*I"Bass Clarinet in Bb	*I"Bass Clarinet in Bb	*I"Clarinet in Bb I. II. III.	*I"Clarinet in Bb I. II. III.	*I"Clarinet in Eb	*I"Clarinet in Eb	*I"Heckelphone	*I"Heckelphone	*I"English Horn	*I"English Horn	*I"Oboe I. II. III.	*I"Oboe I. II. III.	*I"Flute I. II.	*I"Flute I. II.	*I"Piccolo I. II. III.	*I"Piccolo I. II. III.
*I'Cb.	*	*I'Vc.	*	*I'Vla.	*	*I'Vln. II	*	*I'Vln. I	*	*I'T.-t.	*	*I'W.	*	*I'Tamb.	*	*I'Cast.	*	*I'Tri.	*I'B. D.	*	*I'Cym.	*	*I'S. D.	*	*I'R.	*	*I'S.Bells	*	*I'Xyl.	*	*I'Timp.	*	*I'Timp.	*	*I'Hp.	*	*	*	*I'Tba.	*	*I'Tba.	*	*I'C Tpt.	*	*I'C Tpt.	*	*I'Hn.	*	*I'Hn.	*	*I'Hn.	*	*I'Hn.	*	*I'Cbsn.	*	*I'Cbsn.	*	*I'Bsn.	*	*I'B. Cl.	*	*I'Cl.	*	*I'Eb Cl.	*	*I'Heckl.	*	*I'Eng. Hn.	*	*I'Ob.	*	*I'Fl.	*	*I'Picc.	*
!!pagebreak:original
*	*	*	*	*	*	*	*	*	*	*stria1	*	*stria1	*	*stria1	*	*stria1	*	*stria1	*stria1	*	*stria1	*	*stria1	*	*stria1	*	*stria1	*	*	*	*	*	*	*	*	*	*	*	*	*	*	*	*	*	*	*	*	*	*	*	*	*	*	*	*	*	*	*	*	*	*	*	*	*	*	*	*	*	*	*	*	*	*	*	*	*
*clefF4	*	*clefG2	*	*clefC3	*	*clefG2	*	*clefG2	*	*clefX	*	*clefX	*	*clefX	*	*clefX	*	*clefX	*clefX	*	*clefX	*	*clefX	*	*clefX	*	*clefX	*	*clefG2	*	*clefF4	*	*clefF4	*	*clefF4	*	*clefG2	*	*clefF4	*	*clefF4	*	*clefG2	*	*clefG2	*	*clefG2	*	*clefG2	*	*clefG2	*	*clefG2	*	*clefF4	*	*clefF4	*	*clefF4	*	*clefF4	*	*clefG2	*	*clefG2	*	*clefG2	*	*clefG2	*	*clefG2	*	*clefG2	*	*clefG2	*
*ITrd7c12	*	*	*	*	*	*	*	*	*	*	*	*	*	*	*	*	*	*	*	*	*	*	*	*	*	*	*	*	*ITrd-7c-12	*	*	*	*	*	*	*	*	*	*	*	*	*	*	*	*	*	*ITrd4c7	*	*ITrd4c7	*	*ITrd4c7	*	*ITrd4c7	*	*ITrd7c12	*	*ITrd7c12	*	*	*	*ITrd1c2	*	*ITrd1c2	*	*ITrd-2c-3	*	*ITrd7c12	*	*ITrd4c7	*	*	*	*	*	*ITrd-7c-12	*
*k[]	*	*k[]	*	*k[]	*	*k[]	*	*k[]	*	*k[]	*	*k[]	*	*k[]	*	*k[]	*	*k[]	*k[]	*	*k[]	*	*k[]	*	*k[]	*	*k[]	*	*k[]	*	*k[]	*	*k[]	*	*k[]	*	*k[]	*	*k[]	*	*k[]	*	*k[]	*	*k[]	*	*k[b-]	*	*k[b-]	*	*k[b-]	*	*k[b-]	*	*k[]	*	*k[]	*	*k[]	*	*k[b-e-]	*	*k[b-e-]	*	*k[b-e-a-]	*	*k[]	*	*k[b-]	*	*k[]	*	*k[]	*	*k[]	*
*	*	*	*	*	*	*	*	*	*	*C:	*	*C:	*	*C:	*	*C:	*	*C:	*C:	*	*C:	*	*C:	*	*C:	*	*C:	*	*	*	*	*	*	*	*	*	*	*	*	*	*	*	*	*	*	*	*	*	*	*	*	*	*	*	*	*	*	*	*	*	*	*	*	*	*	*	*	*	*	*	*	*	*	*	*	*
*M2/8	*	*M2/8	*	*M2/8	*	*M2/8	*	*M2/8	*	*M2/8	*	*M2/8	*	*M2/8	*	*M2/8	*	*M2/8	*M2/8	*	*M2/8	*	*M2/8	*	*M2/8	*	*M2/8	*	*M2/8	*	*M2/8	*	*M2/8	*	*M2/8	*	*M2/8	*	*M2/8	*	*M2/8	*	*M2/8	*	*M2/8	*	*M2/8	*	*M2/8	*	*M2/8	*	*M2/8	*	*M2/8	*	*M2/8	*	*M2/8	*	*M2/8	*	*M2/8	*	*M2/8	*	*M2/8	*	*M2/8	*	*M2/8	*	*M2/8	*	*M2/8	*
=1	=1	=1	=1	=1	=1	=1	=1	=1	=1	=1	=1	=1	=1	=1	=1	=1	=1	=1	=1	=1	=1	=1	=1	=1	=1	=1	=1	=1	=1	=1	=1	=1	=1	=1	=1	=1	=1	=1	=1	=1	=1	=1	=1	=1	=1	=1	=1	=1	=1	=1	=1	=1	=1	=1	=1	=1	=1	=1	=1	=1	=1	=1	=1	=1	=1	=1	=1	=1	=1	=1	=1	=1	=1	=1	=1	=1
*	*	*	*	*	*	*	*	*	*	*	*	*	*	*	*	*	*	*	*	*	*	*	*	*	*	*	*tremolo	*	*	*	*	*	*	*	*	*	*	*	*	*	*	*	*	*	*	*	*	*	*	*	*	*	*	*	*	*	*	*	*	*	*	*	*	*	*	*	*	*	*	*	*	*	*	*	*	*
!LO:TX:a:t=[pizz.]	!	!LO:TX:a:t=[pizz.]	!	!LO:TX:a:t=[pizz.]	!	!LO:TX:a:t=[pizz.]	!	!	!	!	!	!	!	!	!	!	!LO:DY:ed=brack	!	!	!	!	!	!	!	!	!	!	!LO:DY:ed=brack	!	!	!	!	!	!	!	!	!	!	!	!	!	!	!	!	!	!	!	!	!	!	!	!	!	!	!	!	!	!	!	!	!	!	!	!	!	!LO:DY:ed=brack	!	!	!	!	!	!LO:DY:ed=brack	!	!LO:DY:ed=brack	!	!LO:DY:ed=brack
4ryy	.	4ryy	.	4ryy	.	4ryy	.	4ryy	.	4ryy	4ryy	4ryy	.	8ryy	.	8ryy	4ryy	8ryy	4ryy	4ryy	4ryy	4ryy	4ryy	.	4ryy	.	32ryy	4ryy	4ryy	.	4ryy	.	4ryy	.	4ryy	.	4ryy	.	4ryy	.	4ryy	.	4ryy	.	4ryy	.	4ryy	.	4ryy	.	4ryy	.	4ryy	.	4ryy	.	4ryy	.	4ryy	.	4ryy	.	4ryy	.	(20aaa--XLL	ff	4ryy	.	4ryy	.	(20ggLL	ff	(20gggLL	ff	(20ggggLL	ff
.	.	.	.	.	.	.	.	.	.	.	.	.	.	.	.	.	.	.	.	.	.	.	.	.	.	.	32ryy	.	.	.	.	.	.	.	.	.	.	.	.	.	.	.	.	.	.	.	.	.	.	.	.	.	.	.	.	.	.	.	.	.	.	.	.	.	.	.	.	.	.	.	.	.	.	.	.	.
.	.	.	.	.	.	.	.	.	.	.	.	.	.	.	.	.	.	.	.	.	.	.	.	.	.	.	.	.	.	.	.	.	.	.	.	.	.	.	.	.	.	.	.	.	.	.	.	.	.	.	.	.	.	.	.	.	.	.	.	.	.	.	.	.	20ggg-X	.	.	.	.	.	20ff#X	.	20fff#X	.	20ffff#X	.
.	.	.	.	.	.	.	.	.	.	.	.	.	.	.	.	.	.	.	.	.	.	.	.	.	.	.	32ryy	.	.	.	.	.	.	.	.	.	.	.	.	.	.	.	.	.	.	.	.	.	.	.	.	.	.	.	.	.	.	.	.	.	.	.	.	.	.	.	.	.	.	.	.	.	.	.	.	.
.	.	.	.	.	.	.	.	.	.	.	.	.	.	.	.	.	.	.	.	.	.	.	.	.	.	.	32ryy	.	.	.	.	.	.	.	.	.	.	.	.	.	.	.	.	.	.	.	.	.	.	.	.	.	.	.	.	.	.	.	.	.	.	.	.	.	.	.	.	.	.	.	.	.	.	.	.	.
.	.	.	.	.	.	.	.	.	.	.	.	.	.	.	.	.	.	.	.	.	.	.	.	.	.	.	.	.	.	.	.	.	.	.	.	.	.	.	.	.	.	.	.	.	.	.	.	.	.	.	.	.	.	.	.	.	.	.	.	.	.	.	.	.	20fff-X	.	.	.	.	.	20ee	.	20eee	.	20eeee	.
*	*	*	*	*	*	*	*	*	*	*	*	*	*	*tremolo	*	*	*	*	*	*	*	*	*	*	*	*	*	*	*	*	*	*	*	*	*	*	*	*	*	*	*	*	*	*	*	*	*	*	*	*	*	*	*	*	*	*	*	*	*	*	*	*	*	*	*	*	*	*	*	*	*	*	*	*	*	*
*	*	*	*	*	*	*	*	*	*	*	*	*	*	*	*	*	*	*tremolo	*	*	*	*	*	*	*	*	*	*	*	*	*	*	*	*	*	*	*	*	*	*	*	*	*	*	*	*	*	*	*	*	*	*	*	*	*	*	*	*	*	*	*	*	*	*	*	*	*	*	*	*	*	*	*	*	*	*
.	.	.	.	.	.	.	.	.	.	.	.	.	.	32ryy	.	8ryy	.	32ryy	.	.	.	.	.	.	.	.	32ryy	.	.	.	.	.	.	.	.	.	.	.	.	.	.	.	.	.	.	.	.	.	.	.	.	.	.	.	.	.	.	.	.	.	.	.	.	.	.	.	.	.	.	.	.	.	.	.	.	.
.	.	.	.	.	.	.	.	.	.	.	.	.	.	.	.	.	.	.	.	.	.	.	.	.	.	.	.	.	.	.	.	.	.	.	.	.	.	.	.	.	.	.	.	.	.	.	.	.	.	.	.	.	.	.	.	.	.	.	.	.	.	.	.	.	20eee-	.	.	.	.	.	20dd#X	.	20ddd#X	.	20dddd#X	.
.	.	.	.	.	.	.	.	.	.	.	.	.	.	32ryy	.	.	.	32ryy	.	.	.	.	.	.	.	.	32ryy	.	.	.	.	.	.	.	.	.	.	.	.	.	.	.	.	.	.	.	.	.	.	.	.	.	.	.	.	.	.	.	.	.	.	.	.	.	.	.	.	.	.	.	.	.	.	.	.	.
.	.	.	.	.	.	.	.	.	.	.	.	.	.	32ryy	.	.	.	32ryy	.	.	.	.	.	.	.	.	32ryy	.	.	.	.	.	.	.	.	.	.	.	.	.	.	.	.	.	.	.	.	.	.	.	.	.	.	.	.	.	.	.	.	.	.	.	.	.	.	.	.	.	.	.	.	.	.	.	.	.
.	.	.	.	.	.	.	.	.	.	.	.	.	.	.	.	.	.	.	.	.	.	.	.	.	.	.	.	.	.	.	.	.	.	.	.	.	.	.	.	.	.	.	.	.	.	.	.	.	.	.	.	.	.	.	.	.	.	.	.	.	.	.	.	.	20fff-JJ	.	.	.	.	.	20eeJJ	.	20eeeJJ	.	20eeeeJJ	.
.	.	.	.	.	.	.	.	.	.	.	.	.	.	32ryy	.	.	.	32ryy	.	.	.	.	.	.	.	.	32ryy	.	.	.	.	.	.	.	.	.	.	.	.	.	.	.	.	.	.	.	.	.	.	.	.	.	.	.	.	.	.	.	.	.	.	.	.	.	.	.	.	.	.	.	.	.	.	.	.	.
*	*	*	*	*	*	*	*	*	*	*	*	*	*	*	*	*	*	*Xtremolo	*	*	*	*	*	*	*	*	*	*	*	*	*	*	*	*	*	*	*	*	*	*	*	*	*	*	*	*	*	*	*	*	*	*	*	*	*	*	*	*	*	*	*	*	*	*	*	*	*	*	*	*	*	*	*	*	*	*
*	*	*	*	*	*	*	*	*	*	*	*	*	*	*Xtremolo	*	*	*	*	*	*	*	*	*	*	*	*	*	*	*	*	*	*	*	*	*	*	*	*	*	*	*	*	*	*	*	*	*	*	*	*	*	*	*	*	*	*	*	*	*	*	*	*	*	*	*	*	*	*	*	*	*	*	*	*	*	*
=2	=2	=2	=2	=2	=2	=2	=2	=2	=2	=2	=2	=2	=2	=2	=2	=2	=2	=2	=2	=2	=2	=2	=2	=2	=2	=2	=2	=2	=2	=2	=2	=2	=2	=2	=2	=2	=2	=2	=2	=2	=2	=2	=2	=2	=2	=2	=2	=2	=2	=2	=2	=2	=2	=2	=2	=2	=2	=2	=2	=2	=2	=2	=2	=2	=2	=2	=2	=2	=2	=2	=2	=2	=2	=2	=2	=2
!	!LO:DY:ed=brack	!	!	!	!	!	!	!	!	!	!	!	!	!	!	!	!	!	!	!	!	!	!	!	!	!	!	!	!	!	!	!LO:DY:ed=brack	!	!	!	!	!	!	!	!LO:DY:ed=brack	!	!LO:DY:ed=brack	!	!	!	!	!	!	!	!	!	!	!	!	!	!LO:DY:ed=brack	!	!LO:DY:ed=brack	!	!	!	!	!	!	!	!	!	!	!	!	!	!	!	!	!	!
16ryy	4ryy	16ryy	.	16ryy	.	16ryy	.	4ryy	.	4ryy	.	16ryy	.	4ryy	.	4ryy	.	4ryy	4ryy	.	4ryy	.	4ryy	.	4ryy	.	12ryy	.	4ryy	.	16ryy	4ryy	16ryy	.	4ryy	.	4ryy	.	16ryy	4ryy	16ryy	4ryy	16ryy	.	16ryy	.	16ryy	.	16ryy	.	16ryy	.	16ryy	.	16ryy	4ryy	16ryy	4ryy	4ryy	.	16ryy	.	4ryy	.	6ggg-X)	.	4ryy	.	16ryy	.	6ff#X)	.	6fff#X)	.	6ffff#X)	.
!	!	!	!LO:DY:ed=brack	!	!LO:DY:ed=brack	!	!LO:DY:ed=brack	!	!	!	!	!	!LO:DY:ed=brack	!	!	!	!	!	!	!	!	!	!	!	!	!	!	!	!	!	!	!	!	!LO:DY:ed=brack	!	!	!	!	!	!	!	!	!	!LO:DY:ed=brack	!	!LO:DY:ed=brack	!	!LO:DY:ed=brack	!	!LO:DY:ed=brack	!	!LO:DY:ed=brack	!	!LO:DY:ed=brack	!	!	!	!	!	!	!	!LO:DY:ed=brack	!	!	!	!	!	!	!	!LO:DY:ed=brack	!	!	!	!	!	!
16ryy	.	16ryy	4ryy	16ryy	4ryy	16ryy	4ryy	.	.	.	.	16ryy	4ryy	.	.	.	.	.	.	.	.	.	.	.	.	.	.	.	.	.	16ryy	.	16ryy	4ryy	.	.	.	.	16ryy	.	16ryy	.	16ryy	4ryy	16ryy	4ryy	16ryy	4ryy	16ryy	4ryy	16ryy	4ryy	16ryy	4ryy	16ryy	.	16ryy	.	.	.	16ryy	4ryy	.	.	.	.	.	.	16ryy	4ryy	.	.	.	.	.	.
.	.	.	.	.	.	.	.	.	.	.	.	.	.	.	.	.	.	.	.	.	.	.	.	.	.	.	12ryy	.	.	.	.	.	.	.	.	.	.	.	.	.	.	.	.	.	.	.	.	.	.	.	.	.	.	.	.	.	.	.	.	.	.	.	.	.	.	.	.	.	.	.	.	.	.	.	.	.
16ryy	.	16ryy	.	16ryy	.	16ryy	.	.	.	.	.	16ryy	.	.	.	.	.	.	.	.	.	.	.	.	.	.	.	.	.	.	16ryy	.	16ryy	.	.	.	.	.	16ryy	.	16ryy	.	16ryy	.	16ryy	.	16ryy	.	16ryy	.	16ryy	.	16ryy	.	16ryy	.	16ryy	.	.	.	16ryy	.	.	.	.	.	.	.	16ryy	.	.	.	.	.	.	.
.	.	.	.	.	.	.	.	.	.	.	.	.	.	.	.	.	.	.	.	.	.	.	.	.	.	.	12ryy	.	.	.	.	.	.	.	.	.	.	.	.	.	.	.	.	.	.	.	.	.	.	.	.	.	.	.	.	.	.	.	.	.	.	.	.	.	[12ggg-^	.	.	.	.	.	[12ff#^	.	[12fff#^	.	[12ffff#^	.
16ryy	.	16ryy	.	16ryy	.	16ryy	.	.	.	.	.	16ryy	.	.	.	.	.	.	.	.	.	.	.	.	.	.	.	.	.	.	16ryy	.	16ryy	.	.	.	.	.	16ryy	.	16ryy	.	16ryy	.	16ryy	.	16ryy	.	16ryy	.	16ryy	.	16ryy	.	16ryy	.	16ryy	.	.	.	16ryy	.	.	.	.	.	.	.	16ryy	.	.	.	.	.	.	.
!!LO:REH:t=34
=3	=3	=3	=3	=3	=3	=3	=3	=3	=3	=3	=3	=3	=3	=3	=3	=3	=3	=3	=3	=3	=3	=3	=3	=3	=3	=3	=3	=3	=3	=3	=3	=3	=3	=3	=3	=3	=3	=3	=3	=3	=3	=3	=3	=3	=3	=3	=3	=3	=3	=3	=3	=3	=3	=3	=3	=3	=3	=3	=3	=3	=3	=3	=3	=3	=3	=3	=3	=3	=3	=3	=3	=3	=3	=3	=3	=3
!	!	!	!	!	!	!	!	!	!	!	!	!	!	!	!	!	!	!	!	!	!	!	!	!LO:DY:ed=brack	!	!	!	!	!	!	!	!	!	!	!	!	!	!	!	!	!	!	!	!	!	!	!	!	!	!	!	!	!	!	!	!	!	!	!	!	!	!	!	!	!	!	!	!	!	!	!	!	!	!	!	!
.	.	.	.	.	.	.	.	.	.	.	.	.	.	.	.	.	.	.	.	.	.	.	16ryy	4ryy	.	.	.	.	.	.	.	.	.	.	.	.	.	.	.	.	.	.	.	.	.	.	.	.	.	.	.	.	.	.	.	.	.	.	.	.	.	.	.	.	.	.	.	.	.	.	.	.	.	.	.	.
.	.	.	.	.	.	.	.	.	.	.	.	.	.	.	.	8ryy	.	.	.	.	.	.	16ryy	.	.	.	.	.	.	.	.	.	.	.	.	.	.	.	.	.	.	.	.	.	.	.	.	.	.	.	.	.	.	.	.	.	.	.	.	.	.	.	.	.	.	.	.	.	.	.	.	.	.	.	.	.
4ryy	.	4ryy	.	4ryy	.	4ryy	.	4ryy	.	4ryy	4ryy	4ryy	.	4ryy	.	16ryy	.	4ryy	4ryy	4ryy	4ryy	4ryy	16ryy	.	4ryy	.	48ryy	.	4ryy	.	4ryy	.	4ryy	.	4ryy	.	4ryy	.	4ryy	.	4ryy	.	4ryy	.	4ryy	.	4ryy	.	4ryy	.	4ryy	.	4ryy	.	4ryy	.	4ryy	.	4ryy	.	4ryy	.	4ryy	.	4ggg-]	.	4ryy	.	4ryy	.	4ff#]	.	4fff#]	.	4ffff#]	.
.	.	.	.	.	.	.	.	.	.	.	.	.	.	.	.	.	.	.	.	.	.	.	.	.	.	.	48ryy	.	.	.	.	.	.	.	.	.	.	.	.	.	.	.	.	.	.	.	.	.	.	.	.	.	.	.	.	.	.	.	.	.	.	.	.	.	.	.	.	.	.	.	.	.	.	.	.	.
.	.	.	.	.	.	.	.	.	.	.	.	.	.	.	.	.	.	.	.	.	.	.	.	.	.	.	48ryy	.	.	.	.	.	.	.	.	.	.	.	.	.	.	.	.	.	.	.	.	.	.	.	.	.	.	.	.	.	.	.	.	.	.	.	.	.	.	.	.	.	.	.	.	.	.	.	.	.
.	.	.	.	.	.	.	.	.	.	.	.	.	.	.	.	32ryy	.	.	.	.	.	.	16ryy	.	.	.	48ryy	.	.	.	.	.	.	.	.	.	.	.	.	.	.	.	.	.	.	.	.	.	.	.	.	.	.	.	.	.	.	.	.	.	.	.	.	.	.	.	.	.	.	.	.	.	.	.	.	.
.	.	.	.	.	.	.	.	.	.	.	.	.	.	.	.	.	.	.	.	.	.	.	.	.	.	.	48ryy	.	.	.	.	.	.	.	.	.	.	.	.	.	.	.	.	.	.	.	.	.	.	.	.	.	.	.	.	.	.	.	.	.	.	.	.	.	.	.	.	.	.	.	.	.	.	.	.	.
.	.	.	.	.	.	.	.	.	.	.	.	.	.	.	.	32ryy	.	.	.	.	.	.	.	.	.	.	.	.	.	.	.	.	.	.	.	.	.	.	.	.	.	.	.	.	.	.	.	.	.	.	.	.	.	.	.	.	.	.	.	.	.	.	.	.	.	.	.	.	.	.	.	.	.	.	.	.
.	.	.	.	.	.	.	.	.	.	.	.	.	.	.	.	.	.	.	.	.	.	.	.	.	.	.	48ryy	.	.	.	.	.	.	.	.	.	.	.	.	.	.	.	.	.	.	.	.	.	.	.	.	.	.	.	.	.	.	.	.	.	.	.	.	.	.	.	.	.	.	.	.	.	.	.	.	.
.	.	.	.	.	.	.	.	.	.	.	.	.	.	.	.	.	.	.	.	.	.	.	16ryy	.	.	.	.	.	.	.	.	.	.	.	.	.	.	.	.	.	.	.	.	.	.	.	.	.	.	.	.	.	.	.	.	.	.	.	.	.	.	.	.	.	.	.	.	.	.	.	.	.	.	.	.	.
.	.	.	.	.	.	.	.	.	.	.	.	.	.	.	.	8ryy	.	.	.	.	.	.	16ryy	.	.	.	.	.	.	.	.	.	.	.	.	.	.	.	.	.	.	.	.	.	.	.	.	.	.	.	.	.	.	.	.	.	.	.	.	.	.	.	.	.	.	.	.	.	.	.	.	.	.	.	.	.
.	.	.	.	.	.	.	.	.	.	.	.	.	.	.	.	16ryy	.	.	.	.	.	.	16ryy	.	.	.	48ryy	.	.	.	.	.	.	.	.	.	.	.	.	.	.	.	.	.	.	.	.	.	.	.	.	.	.	.	.	.	.	.	.	.	.	.	.	.	.	.	.	.	.	.	.	.	.	.	.	.
.	.	.	.	.	.	.	.	.	.	.	.	.	.	.	.	.	.	.	.	.	.	.	.	.	.	.	48ryy	.	.	.	.	.	.	.	.	.	.	.	.	.	.	.	.	.	.	.	.	.	.	.	.	.	.	.	.	.	.	.	.	.	.	.	.	.	.	.	.	.	.	.	.	.	.	.	.	.
.	.	.	.	.	.	.	.	.	.	.	.	.	.	.	.	.	.	.	.	.	.	.	.	.	.	.	48ryy	.	.	.	.	.	.	.	.	.	.	.	.	.	.	.	.	.	.	.	.	.	.	.	.	.	.	.	.	.	.	.	.	.	.	.	.	.	.	.	.	.	.	.	.	.	.	.	.	.
.	.	.	.	.	.	.	.	.	.	.	.	.	.	.	.	32ryy	.	.	.	.	.	.	16ryy	.	.	.	48ryy	.	.	.	.	.	.	.	.	.	.	.	.	.	.	.	.	.	.	.	.	.	.	.	.	.	.	.	.	.	.	.	.	.	.	.	.	.	.	.	.	.	.	.	.	.	.	.	.	.
.	.	.	.	.	.	.	.	.	.	.	.	.	.	.	.	.	.	.	.	.	.	.	.	.	.	.	48ryy	.	.	.	.	.	.	.	.	.	.	.	.	.	.	.	.	.	.	.	.	.	.	.	.	.	.	.	.	.	.	.	.	.	.	.	.	.	.	.	.	.	.	.	.	.	.	.	.	.
.	.	.	.	.	.	.	.	.	.	.	.	.	.	.	.	32ryy	.	.	.	.	.	.	.	.	.	.	.	.	.	.	.	.	.	.	.	.	.	.	.	.	.	.	.	.	.	.	.	.	.	.	.	.	.	.	.	.	.	.	.	.	.	.	.	.	.	.	.	.	.	.	.	.	.	.	.	.
.	.	.	.	.	.	.	.	.	.	.	.	.	.	.	.	.	.	.	.	.	.	.	.	.	.	.	48ryy	.	.	.	.	.	.	.	.	.	.	.	.	.	.	.	.	.	.	.	.	.	.	.	.	.	.	.	.	.	.	.	.	.	.	.	.	.	.	.	.	.	.	.	.	.	.	.	.	.
=4	=4	=4	=4	=4	=4	=4	=4	=4	=4	=4	=4	=4	=4	=4	=4	=4	=4	=4	=4	=4	=4	=4	=4	=4	=4	=4	=4	=4	=4	=4	=4	=4	=4	=4	=4	=4	=4	=4	=4	=4	=4	=4	=4	=4	=4	=4	=4	=4	=4	=4	=4	=4	=4	=4	=4	=4	=4	=4	=4	=4	=4	=4	=4	=4	=4	=4	=4	=4	=4	=4	=4	=4	=4	=4	=4	=4
16ryy	.	16ryy	.	16ryy	.	16ryy	.	4ryy	.	4ryy	.	16ryy	.	4ryy	.	4ryy	.	4ryy	4ryy	.	4ryy	.	4ryy	.	4ryy	.	32ryy	.	4ryy	.	16ryy	.	16ryy	.	4ryy	.	4ryy	.	16ryy	.	16ryy	.	16ryy	.	16ryy	.	16ryy	.	16ryy	.	16ryy	.	16ryy	.	16ryy	.	16ryy	.	4ryy	.	16ryy	.	4ryy	.	12aaa--XL	.	4ryy	.	16ryy	.	12ggL	.	12gggL	.	12ggggL	.
.	.	.	.	.	.	.	.	.	.	.	.	.	.	.	.	.	.	.	.	.	.	.	.	.	.	.	32ryy	.	.	.	.	.	.	.	.	.	.	.	.	.	.	.	.	.	.	.	.	.	.	.	.	.	.	.	.	.	.	.	.	.	.	.	.	.	.	.	.	.	.	.	.	.	.	.	.	.
16ryy	.	16ryy	.	16ryy	.	16ryy	.	.	.	.	.	16ryy	.	.	.	.	.	.	.	.	.	.	.	.	.	.	32ryy	.	.	.	16ryy	.	16ryy	.	.	.	.	.	16ryy	.	16ryy	.	16ryy	.	16ryy	.	16ryy	.	16ryy	.	16ryy	.	16ryy	.	16ryy	.	16ryy	.	.	.	16ryy	.	.	.	.	.	.	.	16ryy	.	.	.	.	.	.	.
.	.	.	.	.	.	.	.	.	.	.	.	.	.	.	.	.	.	.	.	.	.	.	.	.	.	.	.	.	.	.	.	.	.	.	.	.	.	.	.	.	.	.	.	.	.	.	.	.	.	.	.	.	.	.	.	.	.	.	.	.	.	.	.	.	12bbb--X	.	.	.	.	.	12aa	.	12aaa	.	12aaaa	.
.	.	.	.	.	.	.	.	.	.	.	.	.	.	.	.	.	.	.	.	.	.	.	.	.	.	.	32ryy	.	.	.	.	.	.	.	.	.	.	.	.	.	.	.	.	.	.	.	.	.	.	.	.	.	.	.	.	.	.	.	.	.	.	.	.	.	.	.	.	.	.	.	.	.	.	.	.	.
16ryy	.	8ryy	.	8ryy	.	8ryy	.	.	.	.	.	8ryy	.	.	.	.	.	.	.	.	.	.	.	.	.	.	32ryy	.	.	.	16ryy	.	8ryy	.	.	.	.	.	16ryy	.	16ryy	.	8ryy	.	8ryy	.	8ryy	.	8ryy	.	8ryy	.	8ryy	.	16ryy	.	16ryy	.	.	.	8ryy	.	.	.	.	.	.	.	8ryy	.	.	.	.	.	.	.
.	.	.	.	.	.	.	.	.	.	.	.	.	.	.	.	.	.	.	.	.	.	.	.	.	.	.	32ryy	.	.	.	.	.	.	.	.	.	.	.	.	.	.	.	.	.	.	.	.	.	.	.	.	.	.	.	.	.	.	.	.	.	.	.	.	.	.	.	.	.	.	.	.	.	.	.	.	.
.	.	.	.	.	.	.	.	.	.	.	.	.	.	.	.	.	.	.	.	.	.	.	.	.	.	.	.	.	.	.	.	.	.	.	.	.	.	.	.	.	.	.	.	.	.	.	.	.	.	.	.	.	.	.	.	.	.	.	.	.	.	.	.	.	12cccc--J	.	.	.	.	.	12bb-XJ	.	12bbb-XJ	.	12bbbb-XJ	.
16ryy	.	.	.	.	.	.	.	.	.	.	.	.	.	.	.	.	.	.	.	.	.	.	.	.	.	.	32ryy	.	.	.	16ryy	.	.	.	.	.	.	.	16ryy	.	16ryy	.	.	.	.	.	.	.	.	.	.	.	.	.	16ryy	.	16ryy	.	.	.	.	.	.	.	.	.	.	.	.	.	.	.	.	.	.	.
.	.	.	.	.	.	.	.	.	.	.	.	.	.	.	.	.	.	.	.	.	.	.	.	.	.	.	32ryy	.	.	.	.	.	.	.	.	.	.	.	.	.	.	.	.	.	.	.	.	.	.	.	.	.	.	.	.	.	.	.	.	.	.	.	.	.	.	.	.	.	.	.	.	.	.	.	.	.
=5	=5	=5	=5	=5	=5	=5	=5	=5	=5	=5	=5	=5	=5	=5	=5	=5	=5	=5	=5	=5	=5	=5	=5	=5	=5	=5	=5	=5	=5	=5	=5	=5	=5	=5	=5	=5	=5	=5	=5	=5	=5	=5	=5	=5	=5	=5	=5	=5	=5	=5	=5	=5	=5	=5	=5	=5	=5	=5	=5	=5	=5	=5	=5	=5	=5	=5	=5	=5	=5	=5	=5	=5	=5	=5	=5	=5
!	!	!	!	!	!	!	!	!	!	!	!	!	!	!	!	!	!	!	!	!	!	!	!	!	!	!	!	!	!	!	!	!	!	!	!LO:TX:a:t=a2 sons étouffés. Pincez les cordes très près de la table	!	!	!	!	!	!	!	!	!	!	!	!	!	!	!	!	!	!	!	!	!	!	!	!	!	!	!	!	!	!	!	!	!	!	!	!	!	!	!	!	!
4ryy	.	4ryy	.	4ryy	.	4ryy	.	4ryy	.	4ryy	4ryy	4ryy	.	4ryy	.	4ryy	.	4ryy	4ryy	4ryy	4ryy	4ryy	4ryy	.	4ryy	.	32ryy	.	4ryy	.	4ryy	.	4ryy	.	4ryy	.	4ryy	.	4ryy	.	4ryy	.	4ryy	.	4ryy	.	4ryy	.	4ryy	.	4ryy	.	4ryy	.	4ryy	.	4ryy	.	4ryy	.	4ryy	.	4ryy	.	(24bbb--XLL	.	4ryy	.	4ryy	.	(24aaLL	.	(24aaaLL	.	(24aaaaLL	.
.	.	.	.	.	.	.	.	.	.	.	.	.	.	.	.	.	.	.	.	.	.	.	.	.	.	.	32ryy	.	.	.	.	.	.	.	.	.	.	.	.	.	.	.	.	.	.	.	.	.	.	.	.	.	.	.	.	.	.	.	.	.	.	.	.	.	.	.	.	.	.	.	.	.	.	.	.	.
.	.	.	.	.	.	.	.	.	.	.	.	.	.	.	.	.	.	.	.	.	.	.	.	.	.	.	.	.	.	.	.	.	.	.	.	.	.	.	.	.	.	.	.	.	.	.	.	.	.	.	.	.	.	.	.	.	.	.	.	.	.	.	.	.	24cccc--	.	.	.	.	.	24bb-X	.	24bbb-X	.	24bbbb-X	.
.	.	.	.	.	.	.	.	.	.	.	.	.	.	.	.	.	.	.	.	.	.	.	.	.	.	.	32ryy	.	.	.	.	.	.	.	.	.	.	.	.	.	.	.	.	.	.	.	.	.	.	.	.	.	.	.	.	.	.	.	.	.	.	.	.	.	.	.	.	.	.	.	.	.	.	.	.	.
.	.	.	.	.	.	.	.	.	.	.	.	.	.	.	.	.	.	.	.	.	.	.	.	.	.	.	.	.	.	.	.	.	.	.	.	.	.	.	.	.	.	.	.	.	.	.	.	.	.	.	.	.	.	.	.	.	.	.	.	.	.	.	.	.	24bbb--J	.	.	.	.	.	24aaJ	.	24aaaJ	.	24aaaaJ	.
.	.	.	.	.	.	.	.	.	.	.	.	.	.	.	.	.	.	.	.	.	.	.	.	.	.	.	32ryy	.	.	.	.	.	.	.	.	.	.	.	.	.	.	.	.	.	.	.	.	.	.	.	.	.	.	.	.	.	.	.	.	.	.	.	.	.	.	.	.	.	.	.	.	.	.	.	.	.
.	.	.	.	.	.	.	.	.	.	.	.	.	.	.	.	.	.	.	.	.	.	.	.	.	.	.	32ryy	.	.	.	.	.	.	.	.	.	.	.	.	.	.	.	.	.	.	.	.	.	.	.	.	.	.	.	.	.	.	.	.	.	.	.	.	.	24aaa--XL	.	.	.	.	.	24ggL	.	24gggL	.	24ggggL	.
.	.	.	.	.	.	.	.	.	.	.	.	.	.	.	.	.	.	.	.	.	.	.	.	.	.	.	32ryy	.	.	.	.	.	.	.	.	.	.	.	.	.	.	.	.	.	.	.	.	.	.	.	.	.	.	.	.	.	.	.	.	.	.	.	.	.	.	.	.	.	.	.	.	.	.	.	.	.
.	.	.	.	.	.	.	.	.	.	.	.	.	.	.	.	.	.	.	.	.	.	.	.	.	.	.	.	.	.	.	.	.	.	.	.	.	.	.	.	.	.	.	.	.	.	.	.	.	.	.	.	.	.	.	.	.	.	.	.	.	.	.	.	.	24bbb--	.	.	.	.	.	24aa	.	24aaa	.	24aaaa	.
.	.	.	.	.	.	.	.	.	.	.	.	.	.	.	.	.	.	.	.	.	.	.	.	.	.	.	32ryy	.	.	.	.	.	.	.	.	.	.	.	.	.	.	.	.	.	.	.	.	.	.	.	.	.	.	.	.	.	.	.	.	.	.	.	.	.	.	.	.	.	.	.	.	.	.	.	.	.
.	.	.	.	.	.	.	.	.	.	.	.	.	.	.	.	.	.	.	.	.	.	.	.	.	.	.	.	.	.	.	.	.	.	.	.	.	.	.	.	.	.	.	.	.	.	.	.	.	.	.	.	.	.	.	.	.	.	.	.	.	.	.	.	.	24aaa--JJ	.	.	.	.	.	24ggJJ	.	24gggJJ	.	24ggggJJ	.
.	.	.	.	.	.	.	.	.	.	.	.	.	.	.	.	.	.	.	.	.	.	.	.	.	.	.	32ryy	.	.	.	.	.	.	.	.	.	.	.	.	.	.	.	.	.	.	.	.	.	.	.	.	.	.	.	.	.	.	.	.	.	.	.	.	.	.	.	.	.	.	.	.	.	.	.	.	.
=6	=6	=6	=6	=6	=6	=6	=6	=6	=6	=6	=6	=6	=6	=6	=6	=6	=6	=6	=6	=6	=6	=6	=6	=6	=6	=6	=6	=6	=6	=6	=6	=6	=6	=6	=6	=6	=6	=6	=6	=6	=6	=6	=6	=6	=6	=6	=6	=6	=6	=6	=6	=6	=6	=6	=6	=6	=6	=6	=6	=6	=6	=6	=6	=6	=6	=6	=6	=6	=6	=6	=6	=6	=6	=6	=6	=6
*M3/8	*	*M3/8	*	*M3/8	*	*M3/8	*	*M3/8	*	*M3/8	*	*M3/8	*	*M3/8	*	*M3/8	*	*M3/8	*M3/8	*	*M3/8	*	*M3/8	*	*M3/8	*	*M3/8	*	*M3/8	*	*M3/8	*	*M3/8	*	*M3/8	*	*M3/8	*	*M3/8	*	*M3/8	*	*M3/8	*	*M3/8	*	*M3/8	*	*M3/8	*	*M3/8	*	*M3/8	*	*M3/8	*	*M3/8	*	*M3/8	*	*M3/8	*	*M3/8	*	*M3/8	*	*M3/8	*	*M3/8	*	*M3/8	*	*M3/8	*	*M3/8	*
*	*	*	*	*	*	*	*	*	*	*	*	*	*	*	*	*	*	*	*	*	*	*	*tremolo	*	*	*	*	*	*	*	*	*	*	*	*	*	*	*	*	*	*	*	*	*	*	*	*	*	*	*	*	*	*	*	*	*	*	*	*	*	*	*	*	*	*	*	*	*	*	*	*	*	*	*	*	*
!	!	!	!	!	!	!	!	!	!	!	!	!	!	!	!	!LO:TX:a:i:rj:t=très sec	!	!	!	!	!LO:TX:b:t=(a2)	!	!	!	!	!	!	!	!	!	!	!	!	!	!	!	!	!	!	!	!	!	!	!	!	!	!	!	!	!	!	!	!	!	!	!	!	!	!	!	!	!	!	!	!	!	!	!	!	!	!	!	!	!	!	!
16ryy	.	16ryy	.	16ryy	.	16ryy	.	16ryy	.	8ryy	.	16ryy	.	16ryy	.	16ryy	.	16ryy	8ryy	.	16ryy	.	32ryy	4ryy	8%3ryy	.	8%3ryy	.	16ryy	.	8ryy	.	8ryy	.	16ryy	.	8%3ryy	.	16ryy	.	16ryy	.	16ryy	.	16ryy	.	16ryy	.	16ryy	.	16ryy	.	16ryy	.	16ryy	.	16ryy	.	16ryy	.	16ryy	.	16ryy	.	24ggg-XLL	.	16ryy	.	16ryy	.	24ff#XLL	.	24fff#XLL	.	24ffff#XLL	.
.	.	.	.	.	.	.	.	.	.	.	.	.	.	.	.	.	.	.	.	.	.	.	32ryy	.	.	.	.	.	.	.	.	.	.	.	.	.	.	.	.	.	.	.	.	.	.	.	.	.	.	.	.	.	.	.	.	.	.	.	.	.	.	.	.	.	.	.	.	.	.	.	.	.	.	.	.	.
.	.	.	.	.	.	.	.	.	.	.	.	.	.	.	.	.	.	.	.	.	.	.	.	.	.	.	.	.	.	.	.	.	.	.	.	.	.	.	.	.	.	.	.	.	.	.	.	.	.	.	.	.	.	.	.	.	.	.	.	.	.	.	.	.	24aaa--X	.	.	.	.	.	24gg	.	24ggg	.	24gggg	.
!	!	!	!	!	!	!	!	!LO:TX:t=pizz.	!	!	!	!	!	!	!	!	!	!	!	!	!	!	!	!	!	!	!	!	!LO:TX:a:i:t=loco sempre	!	!	!	!	!	!LO:TX:a:t=pizz.	!	!	!	!	!	!	!	!	!	!	!	!	!	!	!	!	!	!	!	!	!	!	!	!LO:TX:a:t=a3	!	!	!	!LO:TX:a:t=a3	!	!	!	!	!	!	!	!	!	!	!	!	!
!	!	!	!	!	!	!	!	!LO:TX:a:t=senza sord.	!	!	!	!	!	!	!	!	!	!	!	!	!	!	!	!	!	!	!	!	!	!	!	!	!	!	!	!	!	!	!	!	!	!	!	!	!	!	!	!	!	!	!	!	!	!	!	!	!	!	!	!	!	!	!	!	!	!	!	!	!	!	!	!	!	!	!	!
.	.	.	.	.	.	.	.	.	.	.	.	.	.	.	.	8ryy	4ryy	.	.	.	.	.	.	.	.	.	.	.	.	.	.	.	.	.	.	.	.	.	.	.	.	.	.	.	.	.	.	.	.	.	.	.	.	.	.	.	.	.	.	.	.	.	.	.	.	.	.	.	.	.	.	.	.	.	.	.
16ryy	.	16ryy	.	16ryy	.	16ryy	.	16ryy	4ryy	.	.	16ryy	.	16ryy	4ryy	16ryy	.	16ryy	.	.	16ryy	4ryy	32ryy	.	.	.	.	.	16ryy	4ryy	.	.	.	.	16ryy	4ryy	.	.	16ryy	.	16ryy	.	16ryy	.	16ryy	.	16ryy	.	16ryy	.	16ryy	.	16ryy	.	16ryy	.	16ryy	.	16ryy	4ryy	16ryy	.	16ryy	4ryy	.	.	16ryy	4ryy	16ryy	.	.	.	.	.	.	.
.	.	.	.	.	.	.	.	.	.	.	.	.	.	.	.	.	.	.	.	.	.	.	.	.	.	.	.	.	.	.	.	.	.	.	.	.	.	.	.	.	.	.	.	.	.	.	.	.	.	.	.	.	.	.	.	.	.	.	.	.	.	.	.	.	24ggg-J	.	.	.	.	.	24ff#J	.	24fff#	.	24ffff#J	.
.	.	.	.	.	.	.	.	.	.	.	.	.	.	.	.	.	.	.	.	.	.	.	32ryy	.	.	.	.	.	.	.	.	.	.	.	.	.	.	.	.	.	.	.	.	.	.	.	.	.	.	.	.	.	.	.	.	.	.	.	.	.	.	.	.	.	.	.	.	.	.	.	.	.	.	.	.	.
16ryy	.	16ryy	.	16ryy	.	16ryy	.	16ryy	.	8ryy	4ryy	8ryy	.	16ryy	.	16ryy	.	16ryy	8ryy	.	8ryy	.	32ryy	.	.	.	.	.	16ryy	.	16ryy	.	16ryy	.	16ryy	.	.	.	16ryy	.	16ryy	.	16ryy	.	16ryy	.	16ryy	.	16ryy	.	16ryy	.	16ryy	.	16ryy	.	16ryy	.	16ryy	.	16ryy	.	16ryy	.	24fff-XL	.	16ryy	.	16ryy	.	24eeL	.	24eee	.	24eeeeL	.
.	.	.	.	.	.	.	.	.	.	.	.	.	.	.	.	.	.	.	.	.	.	.	32ryy	.	.	.	.	.	.	.	.	.	.	.	.	.	.	.	.	.	.	.	.	.	.	.	.	.	.	.	.	.	.	.	.	.	.	.	.	.	.	.	.	.	.	.	.	.	.	.	.	.	.	.	.	.
.	.	.	.	.	.	.	.	.	.	.	.	.	.	.	.	.	.	.	.	.	.	.	.	.	.	.	.	.	.	.	.	.	.	.	.	.	.	.	.	.	.	.	.	.	.	.	.	.	.	.	.	.	.	.	.	.	.	.	.	.	.	.	.	.	24eee-	.	.	.	.	.	24dd#X	.	24ddd#X	.	24dddd#X	.
.	.	.	.	.	.	.	.	.	.	.	.	.	.	.	.	8ryy	.	.	.	.	.	.	.	.	.	.	.	.	.	.	.	.	.	.	.	.	.	.	.	.	.	.	.	.	.	.	.	.	.	.	.	.	.	.	.	.	.	.	.	.	.	.	.	.	.	.	.	.	.	.	.	.	.	.	.	.
16ryy	.	16ryy	.	16ryy	.	16ryy	.	16ryy	.	.	.	.	.	16ryy	.	16ryy	.	16ryy	.	.	.	.	32ryy	.	.	.	.	.	16ryy	.	16ryy	.	16ryy	.	16ryy	.	.	.	16ryy	.	16ryy	.	16ryy	.	16ryy	.	16ryy	.	16ryy	.	16ryy	.	16ryy	.	16ryy	.	16ryy	.	16ryy	.	16ryy	.	16ryy	.	.	.	16ryy	.	16ryy	.	.	.	.	.	.	.
.	.	.	.	.	.	.	.	.	.	.	.	.	.	.	.	.	.	.	.	.	.	.	.	.	.	.	.	.	.	.	.	.	.	.	.	.	.	.	.	.	.	.	.	.	.	.	.	.	.	.	.	.	.	.	.	.	.	.	.	.	.	.	.	.	24fff-JJ	.	.	.	.	.	24eeJJ	.	24eeeJJ	.	24eeeeJJ	.
.	.	.	.	.	.	.	.	.	.	.	.	.	.	.	.	.	.	.	.	.	.	.	32ryy	.	.	.	.	.	.	.	.	.	.	.	.	.	.	.	.	.	.	.	.	.	.	.	.	.	.	.	.	.	.	.	.	.	.	.	.	.	.	.	.	.	.	.	.	.	.	.	.	.	.	.	.	.
16ryy	.	16ryy	.	16ryy	.	16ryy	.	16ryy	.	8ryy	.	8ryy	.	16ryy	.	16ryy	.	16ryy	16ryy	.	8ryy	.	32ryy	.	.	.	.	.	16ryy	.	8ryy	.	8ryy	.	16ryy	.	.	.	16ryy	.	16ryy	.	16ryy	.	16ryy	.	16ryy	.	16ryy	.	16ryy	.	16ryy	.	16ryy	.	16ryy	.	16ryy	.	16ryy	.	16ryy	.	[8ggg-^	.	16ryy	.	16ryy	.	[8ff#X^	.	[8fff#X^	.	[8ffff#X^	.
.	.	.	.	.	.	.	.	.	.	.	.	.	.	.	.	.	.	.	.	.	.	.	32ryy	.	.	.	.	.	.	.	.	.	.	.	.	.	.	.	.	.	.	.	.	.	.	.	.	.	.	.	.	.	.	.	.	.	.	.	.	.	.	.	.	.	.	.	.	.	.	.	.	.	.	.	.	.
.	.	.	.	.	.	.	.	.	.	.	.	.	.	.	.	8ryy	.	.	.	.	.	.	.	.	.	.	.	.	.	.	.	.	.	.	.	.	.	.	.	.	.	.	.	.	.	.	.	.	.	.	.	.	.	.	.	.	.	.	.	.	.	.	.	.	.	.	.	.	.	.	.	.	.	.	.	.
16ryy	.	16ryy	.	16ryy	.	16ryy	.	16ryy	.	.	.	.	.	16ryy	.	16ryy	.	16ryy	16ryy	4ryy	.	.	32ryy	.	.	.	.	.	16ryy	.	.	.	.	.	16ryy	.	.	.	16ryy	.	16ryy	.	16ryy	.	16ryy	.	16ryy	.	16ryy	.	16ryy	.	16ryy	.	16ryy	.	16ryy	.	16ryy	.	16ryy	.	16ryy	.	.	.	16ryy	.	16ryy	.	.	.	.	.	.	.
.	.	.	.	.	.	.	.	.	.	.	.	.	.	.	.	.	.	.	.	.	.	.	32ryy	4ryy	.	.	.	.	.	.	.	.	.	.	.	.	.	.	.	.	.	.	.	.	.	.	.	.	.	.	.	.	.	.	.	.	.	.	.	.	.	.	.	.	.	.	.	.	.	.	.	.	.	.	.	.
*	*	*	*	*	*	*	*	*	*	*	*	*	*	*	*	*	*	*	*	*	*	*	*Xtremolo	*	*	*	*	*	*	*	*	*	*	*	*	*	*	*	*	*	*	*	*	*	*	*	*	*	*	*	*	*	*	*	*	*	*	*	*	*	*	*	*	*	*	*	*	*	*	*	*	*	*	*	*	*
=7	=7	=7	=7	=7	=7	=7	=7	=7	=7	=7	=7	=7	=7	=7	=7	=7	=7	=7	=7	=7	=7	=7	=7	=7	=7	=7	=7	=7	=7	=7	=7	=7	=7	=7	=7	=7	=7	=7	=7	=7	=7	=7	=7	=7	=7	=7	=7	=7	=7	=7	=7	=7	=7	=7	=7	=7	=7	=7	=7	=7	=7	=7	=7	=7	=7	=7	=7	=7	=7	=7	=7	=7	=7	=7	=7	=7
*M2/8	*	*M2/8	*	*M2/8	*	*M2/8	*	*M2/8	*	*M2/8	*	*M2/8	*	*M2/8	*	*M2/8	*	*M2/8	*M2/8	*	*M2/8	*	*M2/8	*	*M2/8	*	*M2/8	*	*M2/8	*	*M2/8	*	*M2/8	*	*M2/8	*	*M2/8	*	*M2/8	*	*M2/8	*	*M2/8	*	*M2/8	*	*M2/8	*	*M2/8	*	*M2/8	*	*M2/8	*	*M2/8	*	*M2/8	*	*M2/8	*	*M2/8	*	*M2/8	*	*M2/8	*	*M2/8	*	*M2/8	*	*M2/8	*	*M2/8	*	*M2/8	*
*	*	*	*	*	*	*	*	*	*	*	*	*	*	*	*	*	*	*	*	*	*	*	*	*	*tremolo	*	*	*	*	*	*	*	*	*	*	*	*	*	*	*	*	*	*	*	*	*	*	*	*	*	*	*	*	*	*	*	*	*	*	*	*	*	*	*	*	*	*	*	*	*	*	*	*	*	*	*
!	!	!	!	!	!	!	!	!	!	!	!	!	!	!	!	!	!	!	!	!	!	!	!	!	!	!LO:DY:ed=brack	!	!	!	!	!	!	!	!	!	!	!	!	!	!	!	!	!	!	!	!	!	!	!	!	!	!	!	!	!	!	!	!	!	!	!	!	!	!	!	!	!	!	!	!	!	!	!	!	!	!
4ryy	.	4ryy	.	4ryy	.	4ryy	.	4ryy	.	4ryy	.	4ryy	.	4ryy	.	4ryy	.	4ryy	4ryy	.	4ryy	.	4ryy	.	32ryy	4ryy	32ryy	.	4ryy	.	4ryy	.	4ryy	.	4ryy	.	4ryy	.	4ryy	.	4ryy	.	4ryy	.	4ryy	.	4ryy	.	4ryy	.	4ryy	.	4ryy	.	4ryy	.	4ryy	.	4ryy	.	4ryy	.	4ryy	.	16ggg-])	.	4ryy	.	4ryy	.	16ff#])	.	16fff#])	.	16ffff#])	.
.	.	.	.	.	.	.	.	.	.	.	.	.	.	.	.	.	.	.	.	.	.	.	.	.	32ryy	.	32ryy	.	.	.	.	.	.	.	.	.	.	.	.	.	.	.	.	.	.	.	.	.	.	.	.	.	.	.	.	.	.	.	.	.	.	.	.	.	.	.	.	.	.	.	.	.	.	.	.	.
.	.	.	.	.	.	.	.	.	.	.	.	.	.	.	.	.	.	.	.	.	.	.	.	.	32ryy	.	32ryy	.	.	.	.	.	.	.	.	.	.	.	.	.	.	.	.	.	.	.	.	.	.	.	.	.	.	.	.	.	.	.	.	.	.	.	.	.	16r	.	.	.	.	.	16r	.	16r	.	16r	.
.	.	.	.	.	.	.	.	.	.	.	.	.	.	.	.	.	.	.	.	.	.	.	.	.	32ryy	.	32ryy	.	.	.	.	.	.	.	.	.	.	.	.	.	.	.	.	.	.	.	.	.	.	.	.	.	.	.	.	.	.	.	.	.	.	.	.	.	.	.	.	.	.	.	.	.	.	.	.	.
!	!	!	!	!	!	!	!	!	!	!	!	!	!	!	!	!	!	!	!	!	!	!	!	!	!	!	!	!	!	!	!	!	!	!	!	!	!	!	!	!	!	!	!	!	!	!	!	!	!	!	!	!	!	!	!	!	!	!	!	!	!	!	!	!	!	!LO:DY:t=più %s	!	!	!	!	!	!LO:DY:t=più %s	!	!LO:DY:t=più %s	!	!LO:DY:t=più %s
.	.	.	.	.	.	.	.	.	.	.	.	.	.	.	.	.	.	.	.	.	.	.	.	.	32ryy	.	32ryy	.	.	.	.	.	.	.	.	.	.	.	.	.	.	.	.	.	.	.	.	.	.	.	.	.	.	.	.	.	.	.	.	.	.	.	.	.	[8ggg-X	p <	.	.	.	.	[8ff#X	p <	[8fff#X	p <	[8ffff#X	p <
.	.	.	.	.	.	.	.	.	.	.	.	.	.	.	.	.	.	.	.	.	.	.	.	.	32ryy	.	32ryy	.	.	.	.	.	.	.	.	.	.	.	.	.	.	.	.	.	.	.	.	.	.	.	.	.	.	.	.	.	.	.	.	.	.	.	.	.	.	.	.	.	.	.	.	.	.	.	.	.
.	.	.	.	.	.	.	.	.	.	.	.	.	.	.	.	.	.	.	.	.	.	.	.	.	32ryy	.	32ryy	.	.	.	.	.	.	.	.	.	.	.	.	.	.	.	.	.	.	.	.	.	.	.	.	.	.	.	.	.	.	.	.	.	.	.	.	.	.	.	.	.	.	.	.	.	.	.	.	.
.	.	.	.	.	.	.	.	.	.	.	.	.	.	.	.	.	.	.	.	.	.	.	.	.	32ryy	.	32ryy	.	.	.	.	.	.	.	.	.	.	.	.	.	.	.	.	.	.	.	.	.	.	.	.	.	.	.	.	.	.	.	.	.	.	.	.	.	.	.	.	.	.	.	.	.	.	.	.	.
*	*	*	*	*	*	*	*	*	*	*	*	*	*	*	*	*	*	*	*	*	*	*	*	*	*Xtremolo	*	*	*	*	*	*	*	*	*	*	*	*	*	*	*	*	*	*	*	*	*	*	*	*	*	*	*	*	*	*	*	*	*	*	*	*	*	*	*	*	*	*	*	*	*	*	*	*	*	*	*
=8	=8	=8	=8	=8	=8	=8	=8	=8	=8	=8	=8	=8	=8	=8	=8	=8	=8	=8	=8	=8	=8	=8	=8	=8	=8	=8	=8	=8	=8	=8	=8	=8	=8	=8	=8	=8	=8	=8	=8	=8	=8	=8	=8	=8	=8	=8	=8	=8	=8	=8	=8	=8	=8	=8	=8	=8	=8	=8	=8	=8	=8	=8	=8	=8	=8	=8	=8	=8	=8	=8	=8	=8	=8	=8	=8	=8
16ryy	.	16ryy	.	16ryy	.	16ryy	.	4ryy	.	4ryy	.	4ryy	.	4ryy	.	4ryy	.	4ryy	4ryy	.	4ryy	.	4ryy	.	4ryy	.	32ryy	.	4ryy	.	16ryy	.	16ryy	.	4ryy	.	4ryy	.	16ryy	.	16ryy	.	16ryy	.	16ryy	.	16ryy	.	16ryy	.	16ryy	.	16ryy	.	16ryy	.	16ryy	.	4ryy	.	16ryy	.	4ryy	.	4ggg-_	.	4ryy	.	16ryy	.	4ff#_	.	4fff#_	.	4ffff#_	.
.	.	.	.	.	.	.	.	.	.	.	.	.	.	.	.	.	.	.	.	.	.	.	.	.	.	.	32ryy	.	.	.	.	.	.	.	.	.	.	.	.	.	.	.	.	.	.	.	.	.	.	.	.	.	.	.	.	.	.	.	.	.	.	.	.	.	.	.	.	.	.	.	.	.	.	.	.	.
16ryy	.	16ryy	.	16ryy	.	16ryy	.	.	.	.	.	.	.	.	.	.	.	.	.	.	.	.	.	.	.	.	32ryy	.	.	.	16ryy	.	16ryy	.	.	.	.	.	16ryy	.	16ryy	.	16ryy	.	16ryy	.	16ryy	.	16ryy	.	16ryy	.	16ryy	.	16ryy	.	16ryy	.	.	.	16ryy	.	.	.	.	.	.	.	16ryy	.	.	.	.	.	.	.
.	.	.	.	.	.	.	.	.	.	.	.	.	.	.	.	.	.	.	.	.	.	.	.	.	.	.	32ryy	.	.	.	.	.	.	.	.	.	.	.	.	.	.	.	.	.	.	.	.	.	.	.	.	.	.	.	.	.	.	.	.	.	.	.	.	.	.	.	.	.	.	.	.	.	.	.	.	.
16ryy	.	16ryy	.	16ryy	.	16ryy	.	.	.	.	.	.	.	.	.	.	.	.	.	.	.	.	.	.	.	.	32ryy	.	.	.	16ryy	.	16ryy	.	.	.	.	.	16ryy	.	16ryy	.	16ryy	.	16ryy	.	16ryy	.	16ryy	.	16ryy	.	16ryy	.	16ryy	.	16ryy	.	.	.	16ryy	.	.	.	.	.	.	.	16ryy	.	.	.	.	.	.	.
.	.	.	.	.	.	.	.	.	.	.	.	.	.	.	.	.	.	.	.	.	.	.	.	.	.	.	32ryy	.	.	.	.	.	.	.	.	.	.	.	.	.	.	.	.	.	.	.	.	.	.	.	.	.	.	.	.	.	.	.	.	.	.	.	.	.	.	.	.	.	.	.	.	.	.	.	.	.
16ryy	.	16ryy	.	16ryy	.	16ryy	.	.	.	.	.	.	.	.	.	.	.	.	.	.	.	.	.	.	.	.	32ryy	.	.	.	16ryy	.	16ryy	.	.	.	.	.	16ryy	.	16ryy	.	16ryy	.	16ryy	.	16ryy	.	16ryy	.	16ryy	.	16ryy	.	16ryy	.	16ryy	.	.	.	16ryy	.	.	.	.	.	.	.	16ryy	.	.	.	.	.	.	.
.	.	.	.	.	.	.	.	.	.	.	.	.	.	.	.	.	.	.	.	.	.	.	.	.	.	.	32ryy	.	.	.	.	.	.	.	.	.	.	.	.	.	.	.	.	.	.	.	.	.	.	.	.	.	.	.	.	.	.	.	.	.	.	.	.	.	.	[[	.	.	.	.	.	[[	.	[[	.	[[
*	*	*	*	*	*	*	*	*	*	*	*	*	*	*	*	*	*	*	*	*	*	*	*	*	*	*	*Xtremolo	*	*	*	*	*	*	*	*	*	*	*	*	*	*	*	*	*	*	*	*	*	*	*	*	*	*	*	*	*	*	*	*	*	*	*	*	*	*	*	*	*	*	*	*	*	*	*	*	*
=	=	=	=	=	=	=	=	=	=	=	=	=	=	=	=	=	=	=	=	=	=	=	=	=	=	=	=	=	=	=	=	=	=	=	=	=	=	=	=	=	=	=	=	=	=	=	=	=	=	=	=	=	=	=	=	=	=	=	=	=	=	=	=	=	=	=	=	=	=	=	=	=	=	=	=	=
*-	*-	*-	*-	*-	*-	*-	*-	*-	*-	*-	*-	*-	*-	*-	*-	*-	*-	*-	*-	*-	*-	*-	*-	*-	*-	*-	*-	*-	*-	*-	*-	*-	*-	*-	*-	*-	*-	*-	*-	*-	*-	*-	*-	*-	*-	*-	*-	*-	*-	*-	*-	*-	*-	*-	*-	*-	*-	*-	*-	*-	*-	*-	*-	*-	*-	*-	*-	*-	*-	*-	*-	*-	*-	*-	*-	*-
!!!system-decoration: [([(s1)][(s2)])][([(s3)]s4)]s5[(s6[(s7)]s8)][([(s9)]s10,s11)][(s12,s13,s14,s15)][(s16,s17)][(s18,s19)][({(s20,s21)})][(s22,s23)][(s24,s25,s26,s27,s28,s29,s30,s31,s32,s33,s34)][([(s35,s36)]s37,s38,s39)]
!!!RDF**kern: i = editorial accidental
